X:1
T:Let Him In
T:Let Him In
T:Charles Austin Miles
T:Charles Austin Miles, 1903
T:Public Domain Courtesy of the Cyber Hymnal™
T:Public Domain Courtesy of the Cyber Hymnal™
C:Charles Austin Miles
Z:Public Domain
Z:Courtesy of the Cyber Hymnal™
%%score ( 1 2 ) ( 3 4 )
L:1/8
Q:1/4=145
M:3/4
K:F
V:1 treble 
V:2 treble 
V:3 bass 
V:4 bass 
V:1
 [FA]4 [FA]2 | [EG]4 F2 | [EB]2 [FA]2 z2 | [DG]2 [B,D]2 z2 | [CF]4 [CF]2 | [EG]4 [EG]2 | [FA]6- | %7
w: 1.~Who is|this that’s|wait- ing,|wait- ing,|Just out-|side the|door?|
w: 2.~Don’t you|hear Him|say- ing,|say- ing,|“Come, O|come to|Me;|
w: 3.~Still His|voice is|call- ing,|call- ing,|Sweet the|tones and|low;|
w: 4.~Some- time|you’ll be|wait- ing,|wait- ing,|Just out-|side the|gate;|
 [FA]6 | [FA]4 [FA]2 | [EG]4 F2 | [EB]2 [FA]2 z2 | [DG]2 [B,D]2 z2 | F4 F2 | [EG]4 [EG]2 | [CF]6- | %15
w: |Who is|He that’s|knock- ing,|knock- ing?|Has He|knocked be-|fore?|
w: |’Twas for|you that|dy- ing,|dy- ing,|Hung I|on the|tree.|
w: |Bid Him|en- ter|quick- ly,|quick- ly,|Ere He|turns to|go!|
w: |Some- time|you’ll be|plead- ing,|plead- ing,|Then ’twill|be too|late!|
 [CF]6 | [Ec]4 [Ec]2 | [EG]4 [E^G]2 | [FA]4 [GA]2 | [FA]6 | [Fd]4 [Fd]2 | [DF]4 [DG]2 | ([^CA]6 | %23
w: |Rise and|bide Him|en- ter|in!|Peace and|hope He’ll|bring;|
w: |Come and|see My|hands, My|side,|Look on|Me and|live;|
w: |Must His|plead- ing|be in|vain?|Must He,|then, de-|part?|
w: |Now ac-|cept your|heav’n- ly|guest!|He’ll for-|give your|sin!|
 [EB]6) | [FA]4 [FA]2 | [EG]4 F2 | [EB]2 [FA]2 z2 | [DG]2 [B,D]2 z2 | F4 F2 | [EG]4 [EG]2 | %30
w: |’Tis thy|Sav- ior|knock- ing,|knock- ing,|’Tis thy|Lord and|
w: |Tho’ your|sins be|ma- ny,|ma- ny,|Par- don|I can|
w: |All be-|cause His|plead- ing,|plead- ing,|Reach- es|not your|
w: |While He|still is|wait- ing,|wait- ing,|Rise and|let Him|
 [CF]6- | [CF]6 ||"^Refrain" [Fc]4 [Ec]2 | [Fc]6 | [FA]4 [EG]2 [CF]4 [CF]2 | [Fd]4 [Fd]2 | %36
w: King.||||||
w: give.”||||||
w: heart?||||||
w: in.||||||
 ([Fc]2 [FA]3) F | [EG]6- | [EG]6 | [Fc]4 [Ec]2 | [Fc]4 [FA]2 | [DG]4 [EA]2 | [GB]4 [FA][DG] | %43
w: |||||||
w: |||||||
w: |||||||
w: |||||||
 [CF]6 | [CE]6 | [CF]6- | [CF]6 |] x6 |] %48
w: |||||
w: |||||
w: |||||
w: |||||
V:2
 x6 | x4 F2 | x6 | x6 | x6 | x6 | x6 | x6 | x6 | x4 F2 | x6 | x6 | F4 F2 | x6 | x6 | x6 | x6 | x6 | %18
 x6 | x6 | x6 | x6 | x6 | x6 | x6 | x4 F2 | x6 | x6 | F4 F2 | x6 | x6 | x6 || x6 | x6 | x12 | x6 | %36
 x5 F | x6 | x6 | x6 | x6 | x6 | x6 | x6 | x6 | x6 | x6 |] x6 |] %48
V:3
 [F,C]4 [F,C]2 | [B,C]4 [A,C]2 | [G,C]2 [F,C]2 z2 | [B,,B,]2 [B,,F,]2 z2 | [F,A,]4 [F,A,]2 | %5
w: ~ ~|~ ~|~ ~|~ ~|~ ~|
 [C,C]4 [C,C]2 | [F,C]6- | [F,C]6 | [F,C]4 [F,C]2 | [B,C]4 [A,C]2 | [G,C]2 [F,C]2 z2 | %11
w: ~ ~|~||~ ~|~ ~|~ ~|
 [B,,B,]2 [B,,F,]2 z2 | [C,A,]4 [C,A,]2 | [C,B,]4 [C,B,]2 | [F,A,]6- | [F,A,]6 | [C,G,]4 [C,G,]2 | %17
w: ~ ~|~ ~|~ ~|~||~ ~|
 [C,C]2 [C,C]4 | [F,C]4 [E,^C]2 | [D,D]6 | B,4 B,2 | [B,,B,]4 [B,,D,]2 | ([A,,E,]6 | [C,C]6) | %24
w: ~ ~|~ ~|~|~ ~|~ ~|~||
 [F,C]4 [F,C]2 | [B,C]4 [A,C]2 | [G,C]2 [F,C]2 z2 | [B,,B,]2 [B,,F,]2 z2 | [C,A,]4 [C,A,]2 | %29
w: ~ ~|~ ~|~ ~|~ ~|~ ~|
 [C,B,]4 [C,B,]2 | [F,A,]6- | [F,A,]6 || [F,A,]4 [C,G,]2 | [F,A,]6 | [C,C]4 [C,B,]2 x6 | %35
w: ~ ~|~||Let Him|in!|Let Him|
 [F,A,]4 [F,A,]2 | [B,,B,]4 [B,,B,]2 | ([F,A,]2 [F,C]3) [F,A,] | [C,C]6- | [C,C]6 | %40
w: in! He|waits out-|side * the|door;||
 [F,A,]4 [C,G,]2 | [F,A,]4 [F,E]2 | [B,,B,]4 [A,,^C]2 | [G,,D]4 [A,,C][B,,B,] | [C,A,]6 | [C,B,]6 | %46
w: Let Him|in ere|He de-|parts To re-|turn|no|
 [F,A,]6- |] [F,A,]6 |] %48
w: more!||
V:4
 x6 | x6 | x6 | x6 | x6 | x6 | x6 | x6 | x6 | x6 | x6 | x6 | x6 | x6 | x6 | x6 | x6 | x6 | x6 | %19
 x6 | B,4 B,2 | x6 | x6 | x6 | x6 | x6 | x6 | x6 | x6 | x6 | x6 | x6 || x6 | x6 | x12 | x6 | x6 | %37
 x6 | x6 | x6 | x6 | x6 | x6 | x6 | x6 | x6 | x6 |] x6 |] %48

